X:1
T:Rakes Of Kildare
M:6/8
L:1/8
R:jig
C:Traditional
S:Robin Flower
N:Taught to me by Robin Flower, who learned it from
N:Maeve Donnelly.
K:G
C|:DGG GFG|Add d2 e|1 fef ded|cAG F2:|2 fed cAG|
G3 G2||
f|gdg gdg|gdg a2 g|fef ded|cAG F2 f|gdg gdg|
gdg a2 g|fed cAF|G3 G2 f|gdg gdg|gab a2 g|
fef ded|cAG F2 A|B3 BAG|ABc d2 e|fed cAF|G3 G3||
